svg_80x80/fasthttp.svg

<svg viewBox="0 0 80 80" xmlns="http://www.w3.org/2000/svg">
<rect width="100%" height="100%" fill="#28D7C4"/>
<path d="M0 46.1201H60.7429L62.7542 35.8912H0V46.1201Z" fill="url(#paint0_linear_124_707)"/>
<path d="M0 22.3869H65.4264L67.4808 12H1.53925L0 21.0478V22.3869Z" fill="url(#paint1_linear_124_707)"/>
<path d="M0 68H35.0847L36.9235 57.7712H0V68Z" fill="url(#paint2_linear_124_707)"/>
<path d="M43.3166 22.3869L40.8744 35.8912H62.7543L60.743 46.1201H39.0355L35.0847 68H24.4105L33.9641 12H67.4665L65.4264 22.3869H43.3166Z" fill="white"/>
<linearGradient id="paint0_linear_124_707" x1="35" y1="41" x2="2.30381e-08" y2="41" gradientUnits="userSpaceOnUse">
<stop stop-opacity="0.25"/>
<stop offset="1" stop-opacity="0"/>
</linearGradient>
<linearGradient id="paint1_linear_124_707" x1="37.5" y1="17" x2="4.5" y2="17" gradientUnits="userSpaceOnUse">
<stop stop-opacity="0.25"/>
<stop offset="1" stop-opacity="0"/>
</linearGradient>
<linearGradient id="paint2_linear_124_707" x1="30.5" y1="63" x2="4.21128e-07" y2="63" gradientUnits="userSpaceOnUse">
<stop stop-opacity="0.25"/>
<stop offset="1" stop-opacity="0"/>
</linearGradient>
</svg>

<svg xmlns="http://www.w3.org/2000/svg" viewBox="0 0 80 80">
  <rect width="100%" height="100%" fill="#28D7C4"/>
  <path fill="url(#a)" d="M0 46.12h60.74l2.01-10.23H0v10.23Z"/>
  <path fill="url(#b)" d="M0 22.39h65.43L67.48 12H1.54L0 21.05v1.34Z"/>
  <path fill="url(#c)" d="M0 68h35.08l1.84-10.23H0V68Z"/>
  <path fill="#fff" d="m43.32 22.39-2.45 13.5h21.88l-2 10.23H39.03L35.08 68H24.41l9.55-56h33.5l-2.03 10.39H43.32Z"/>
  <linearGradient id="a" x1="35" x2="0" y1="41" y2="41" gradientUnits="userSpaceOnUse">
    <stop stop-opacity=".25"/>
    <stop offset="1" stop-opacity="0"/>
  </linearGradient>
  <linearGradient id="b" x1="37.5" x2="4.5" y1="17" y2="17" gradientUnits="userSpaceOnUse">
    <stop stop-opacity=".25"/>
    <stop offset="1" stop-opacity="0"/>
  </linearGradient>
  <linearGradient id="c" x1="30.5" x2="0" y1="63" y2="63" gradientUnits="userSpaceOnUse">
    <stop stop-opacity=".25"/>
    <stop offset="1" stop-opacity="0"/>
  </linearGradient>
</svg>
